pages/gallery/icons/branding.svg

<?xml version="1.0" encoding="UTF-8" standalone="no"?>
<!-- Created with Inkscape (http://www.inkscape.org/) -->

<svg
   width="150"
   height="50"
   viewBox="0 0 39.687498 13.229167"
   version="1.1"
   id="svg1"
   xml:space="preserve"
   inkscape:version="1.3.2 (091e20e, 2023-11-25, custom)"
   sodipodi:docname="branding.svg"
   xmlns:inkscape="http://www.inkscape.org/namespaces/inkscape"
   xmlns:sodipodi="http://sodipodi.sourceforge.net/DTD/sodipodi-0.dtd"
   xmlns:xlink="http://www.w3.org/1999/xlink"
   xmlns="http://www.w3.org/2000/svg"
   xmlns:svg="http://www.w3.org/2000/svg"><sodipodi:namedview
     id="namedview1"
     pagecolor="#505050"
     bordercolor="#eeeeee"
     borderopacity="1"
     inkscape:showpageshadow="0"
     inkscape:pageopacity="0"
     inkscape:pagecheckerboard="0"
     inkscape:deskcolor="#505050"
     inkscape:document-units="mm"
     inkscape:zoom="2.8284272"
     inkscape:cx="114.5513"
     inkscape:cy="35.178562"
     inkscape:window-width="1920"
     inkscape:window-height="1017"
     inkscape:window-x="1912"
     inkscape:window-y="-8"
     inkscape:window-maximized="1"
     inkscape:current-layer="layer1"
     showgrid="false"
     showguides="true" /><defs
     id="defs1"><inkscape:path-effect
       effect="simplify"
       id="path-effect13"
       is_visible="true"
       lpeversion="1.3"
       threshold="0.01"
       steps="1"
       smooth_angles="360"
       helper_size="10"
       simplify_individual_paths="false"
       simplify_just_coalesce="false" /><linearGradient
       id="linearGradient3"
       inkscape:collect="always"><stop
         style="stop-color:#78e40c;stop-opacity:1;"
         offset="0"
         id="stop3" /><stop
         style="stop-color:#78e40c;stop-opacity:0;"
         offset="1"
         id="stop4" /></linearGradient><rect
       x="-3.6837471"
       y="-23.944357"
       width="239.44356"
       height="226.55045"
       id="rect2" /><linearGradient
       inkscape:collect="always"
       xlink:href="#linearGradient3"
       id="linearGradient4"
       x1="173.59016"
       y1="172.50076"
       x2="365.29922"
       y2="172.50076"
       gradientUnits="userSpaceOnUse" /><linearGradient
       id="linearGradient1"
       inkscape:collect="always"><stop
         style="stop-color:#00ffff;stop-opacity:1;"
         offset="0"
         id="stop1" /><stop
         style="stop-color:#00ffff;stop-opacity:1;"
         offset="0.31071442"
         id="stop3-8" /><stop
         style="stop-color:#00ffff;stop-opacity:0.24705882;"
         offset="0.54681945"
         id="stop4-7" /><stop
         style="stop-color:#00ffff;stop-opacity:0;"
         offset="1"
         id="stop2" /></linearGradient><rect
       x="26.822454"
       y="34.86919"
       width="905.25781"
       height="194.46278"
       id="rect1" /><inkscape:path-effect
       effect="simplify"
       id="path-effect13-4"
       is_visible="true"
       lpeversion="1.3"
       threshold="0.01"
       steps="1"
       smooth_angles="360"
       helper_size="10"
       simplify_individual_paths="false"
       simplify_just_coalesce="false" /><linearGradient
       inkscape:collect="always"
       xlink:href="#linearGradient1"
       id="linearGradient10"
       x1="6.8073683"
       y1="3.0131266"
       x2="6.5153427"
       y2="10.216041"
       gradientUnits="userSpaceOnUse"
       gradientTransform="matrix(1.5319956,0,0,1.6897809,-3.5189291,-4.5626335)" /><radialGradient
       inkscape:collect="always"
       xlink:href="#linearGradient11"
       id="radialGradient12"
       cx="7.0392113"
       cy="12.043834"
       fx="7.0392113"
       fy="12.043834"
       r="3.8820899"
       gradientTransform="matrix(1.6863486,-0.38481546,0.01016113,4.9063959,-23.479188,-41.762372)"
       gradientUnits="userSpaceOnUse" /><linearGradient
       id="linearGradient11"
       inkscape:collect="always"><stop
         style="stop-color:#00ffff;stop-opacity:0.32156864;"
         offset="0"
         id="stop11" /><stop
         style="stop-color:#000000;stop-opacity:0;"
         offset="1"
         id="stop12" /></linearGradient><radialGradient
       inkscape:collect="always"
       xlink:href="#linearGradient11"
       id="radialGradient12-0"
       cx="7.0392113"
       cy="12.043834"
       fx="7.0392113"
       fy="12.043834"
       r="3.8820899"
       gradientTransform="matrix(2.6272571,-0.03716644,-0.00428489,1.2798895,-29.928458,-29.773803)"
       gradientUnits="userSpaceOnUse" /><inkscape:path-effect
       effect="simplify"
       id="path-effect13-1"
       is_visible="true"
       lpeversion="1.3"
       threshold="0.01"
       steps="1"
       smooth_angles="360"
       helper_size="10"
       simplify_individual_paths="false"
       simplify_just_coalesce="false" /><rect
       x="-3.6837471"
       y="-23.944357"
       width="239.44356"
       height="226.55045"
       id="rect2-1" /><rect
       x="26.822454"
       y="34.86919"
       width="905.25781"
       height="194.46278"
       id="rect1-6" /><inkscape:path-effect
       effect="simplify"
       id="path-effect13-4-7"
       is_visible="true"
       lpeversion="1.3"
       threshold="0.01"
       steps="1"
       smooth_angles="360"
       helper_size="10"
       simplify_individual_paths="false"
       simplify_just_coalesce="false" /></defs><g
     inkscape:label="Livello 1"
     inkscape:groupmode="layer"
     id="layer1"><g
       id="g2"
       transform="matrix(0.8118893,0,0,1.0638262,14.506514,-0.38672857)"><g
         id="g1"
         transform="matrix(2.396789,0,0,0.93293117,34.144689,-7.0254753)"><ellipse
           style="fill:url(#radialGradient12);fill-rule:evenodd;stroke:none;stroke-width:0.546489;stroke-linecap:round;stroke-linejoin:bevel;stroke-miterlimit:3.7;stroke-dasharray:none;stroke-opacity:1"
           id="path10"
           cx="-11.486245"
           cy="14.620648"
           rx="6.5481038"
           ry="6.6250682" /><ellipse
           style="fill:url(#radialGradient12-0);fill-rule:evenodd;stroke:none;stroke-width:0.681939;stroke-linecap:round;stroke-linejoin:bevel;stroke-miterlimit:3.7;stroke-dasharray:none;stroke-opacity:1"
           id="path10-8"
           cx="-11.486245"
           cy="-14.620648"
           rx="10.196333"
           ry="6.6250682"
           transform="scale(1,-1)" /></g><path
         style="font-size:6.43037px;line-height:113.22%;font-family:'Great Vibes';-inkscape-font-specification:'Great Vibes, Normal';text-align:center;letter-spacing:1.07173px;text-anchor:middle;fill:url(#linearGradient10);fill-rule:evenodd;stroke:#ffffff;stroke-width:0.160895;stroke-linecap:round;stroke-linejoin:bevel;stroke-miterlimit:3.7;stroke-dasharray:none;stroke-opacity:1"
         d="m 2.9301978,11.107619 q -0.2167285,0 -0.4433083,-0.03259 Q 1.8662577,10.988099 1.5707188,10.67299 1.2850312,10.35788 1.2850312,9.9884382 q 0,-0.402039 0.3250928,-0.7280165 0.3250928,-0.3368421 0.9161707,-0.3368421 0.394052,0 0.857063,0.1738544 Q 3.6394914,9.195225 3.9941382,9.4234115 4.3487849,9.6515922 4.8117959,9.9015072 5.3043609,9.3799426 5.7082639,8.6084624 6.1220186,7.8369835 6.5259217,6.9568438 6.9396763,6.0658397 7.4125387,5.1748332 7.8952522,4.2838291 8.5257352,3.5014822 L 9.0971106,2.795198 Q 8.7326126,2.73 8.3385607,2.697406 7.9445087,2.653948 7.5209029,2.653948 q -0.5319701,0 -1.0934941,0.065198 Q 5.8658849,2.7734691 5.3043609,2.9038678 4.3783388,3.1211858 3.7380044,3.5992875 3.09767,4.077387 2.7627257,4.6424149 2.4376329,5.1965758 2.4376329,5.6855432 q 0,0.3368421 0.1674721,0.6084903 0.1773234,0.2607815 0.5221188,0.3803067 0.2167286,0.076051 0.4433086,0.076051 0.3349442,0 0.5910778,-0.1521311 Q 4.417744,6.446129 4.5950673,6.2288202 4.7723907,6.0006356 4.8512011,5.7941832 q 0.088661,-0.2064524 0.078811,-0.3042451 0,-0.076051 0.098513,-0.076051 0.098513,0 0.098513,0.1629967 v 0.010822 q 0,0.4455026 -0.2462824,0.7714789 Q 4.6344728,6.6851588 4.2601235,6.8590142 3.8956254,7.0328676 3.521276,7.0328676 q -0.2364309,0 -0.4925648,-0.086927 Q 2.4967403,6.7394883 2.2406065,6.348316 1.9844728,5.9462758 1.9844728,5.4681763 q 0,-0.4455027 0.2167286,-0.9127365 Q 2.4277812,4.0773392 2.8612383,3.6535678 3.2946954,3.218933 3.9350299,2.9038211 4.5852155,2.5887082 5.4324271,2.4583186 5.8855868,2.3822676 6.3288952,2.3496619 q 0.4433086,-0.032593 0.857063,-0.032593 0.5713754,0 1.1131968,0.065186 0.5516726,0.054322 1.0343862,0.1738544 0.1379179,-0.1303828 0.2758365,-0.2281848 0.1477685,-0.097791 0.2659848,-0.152114 0.06896,-0.032593 0.118215,-0.043458 0.04925,-0.010822 0.07881,-0.010822 0.05911,0 0.05911,0.043458 0,0.054322 -0.147776,0.1738544 -0.09852,0.076051 -0.187175,0.1738555 -0.088661,0.086927 -0.1083641,0.1303999 1.0048391,0.282515 1.6254711,0.7823468 0.630482,0.4889651 0.630482,1.1626525 0,0.3477087 -0.206876,0.7606144 Q 11.52053,5.7507511 11.13633,6.000666 10.752129,6.2397163 10.318671,6.3592425 9.88521,6.4678992 9.5108604,6.4896264 9.835953,6.5982831 10.22016,6.8156039 q 0.394051,0.2064524 0.719144,0.5106975 0.334944,0.3042451 0.44331,0.7171498 0.06896,0.2607815 0.06896,0.532431 0,0.5758923 -0.305391,1.043127 -0.295539,0.4672308 -0.797956,0.8040758 -0.49257,0.325976 -1.0836477,0.49983 -0.5910779,0.184721 -1.1723047,0.184721 -0.2167285,0 -0.4433083,-0.03259 Q 6.7032457,10.944632 6.0826139,10.749045 5.4718334,10.553457 5.0088224,10.314408 4.0532465,11.107619 2.9301978,11.107619 Z m 5.0241623,-0.315112 q 0.6107804,0 1.1131968,-0.206452 0.502416,-0.206452 0.8669136,-0.543295 0.3743485,-0.3368448 0.5713755,-0.7497491 0.206877,-0.4129047 0.206877,-0.8149426 0,-0.3803067 -0.206877,-0.7388833 Q 10.298968,7.3806096 9.8556605,7.1415603 9.4714599,6.9351081 9.0577054,6.8047173 8.6538022,6.6634597 8.3582633,6.5656681 8.0627242,6.4570075 8.0134679,6.3483479 q 0,-0.1303828 0.098513,-0.1738543 0.1083642,-0.054322 0.2758363,-0.054322 0.197026,0 0.4728624,0.032593 0.2758363,0.032593 0.5812265,0.032593 0.3152416,0 0.6403339,-0.152114 0.334944,-0.1629967 0.610781,-0.4237703 0.275837,-0.2716471 0.443308,-0.5867602 0.177324,-0.3259763 0.177324,-0.6628205 0,-0.3042452 -0.187175,-0.5976258 Q 10.939304,3.4688876 10.505846,3.2515697 10.072389,3.0342506 9.5699728,2.903861 9.0774079,3.6536077 8.584843,4.5880765 8.092278,5.5116809 7.5997131,6.467881 7.1071483,7.4132155 6.604732,8.2607572 6.1023158,9.1082989 5.5998997,9.7167902 q -0.1182164,0.141248 -0.1871748,0.217318 -0.06896,0.06519 -0.1871746,0.1847198 0.4630109,0.206453 1.054089,0.391174 0.5910778,0.184719 1.3496278,0.260782 0.078811,0.01082 0.1576208,0.01082 0.088661,0.01082 0.1674721,0.01082 z M 2.7331719,10.770777 Q 3.2848448,10.803377 3.7380044,10.62951 4.2010153,10.4448 4.5950673,10.11882 4.2502719,9.9341002 3.8857738,9.7385152 3.5311271,9.5320622 3.1272238,9.3690736 2.8415362,9.2604181 2.605105,9.2604181 q -0.364498,0 -0.5516727,0.2173191 -0.1871746,0.206452 -0.1871746,0.478099 0,0.2825148 0.2167285,0.5432948 0.2167287,0.249917 0.6501857,0.271648 z"
         id="text6"
         aria-label="B" /></g></g></svg>

<svg width="150" height="50" viewBox="0 0 39.687 13.229" xmlns:xlink="http://www.w3.org/1999/xlink" xmlns="http://www.w3.org/2000/svg"><defs><linearGradient id="prefix__a"><stop offset="0" stop-color="#78e40c"/><stop offset="1" stop-color="#78e40c" stop-opacity="0"/></linearGradient><linearGradient id="prefix__b"><stop offset="0" stop-color="#0ff"/><stop offset=".311" stop-color="#0ff"/><stop offset=".547" stop-color="#0ff" stop-opacity=".247"/><stop offset="1" stop-color="#0ff" stop-opacity="0"/></linearGradient><linearGradient xlink:href="#prefix__b" id="prefix__f" x1="6.807" y1="3.013" x2="6.515" y2="10.216" gradientUnits="userSpaceOnUse" gradientTransform="matrix(1.532 0 0 1.68978 -3.519 -4.563)"/><linearGradient id="prefix__c"><stop offset="0" stop-color="#0ff" stop-opacity=".322"/><stop offset="1" stop-opacity="0"/></linearGradient><radialGradient xlink:href="#prefix__c" id="prefix__d" cx="7.039" cy="12.044" fx="7.039" fy="12.044" r="3.882" gradientTransform="matrix(1.68635 -.38482 .01016 4.9064 -23.48 -41.762)" gradientUnits="userSpaceOnUse"/><radialGradient xlink:href="#prefix__c" id="prefix__e" cx="7.039" cy="12.044" fx="7.039" fy="12.044" r="3.882" gradientTransform="matrix(2.62726 -.03717 -.00428 1.27989 -29.928 -29.774)" gradientUnits="userSpaceOnUse"/></defs><g fill-rule="evenodd"><g transform="matrix(1.94593 0 0 .99248 42.228 -7.86)"><ellipse cx="-11.486" cy="14.621" rx="6.548" ry="6.625" fill="url(#prefix__d)"/><ellipse cx="-11.486" cy="-14.621" rx="10.196" ry="6.625" transform="scale(1 -1)" fill="url(#prefix__e)"/></g><path style="line-height:113.22%;-inkscape-font-specification:'Great Vibes, Normal';text-align:center" d="M2.93 11.108q-.217 0-.443-.033-.62-.087-.916-.402-.286-.315-.286-.685 0-.402.325-.728.325-.336.916-.336.394 0 .857.173.256.098.611.326.355.229.818.479.492-.522.896-1.294.414-.771.818-1.651.414-.891.887-1.782.482-.891 1.113-1.674l.571-.706q-.364-.065-.758-.098-.394-.043-.818-.043-.532 0-1.094.065-.561.054-1.123.185-.926.217-1.566.695t-.975 1.043q-.325.555-.325 1.044 0 .336.167.608.177.26.522.38.217.076.444.076.334 0 .59-.152.257-.152.434-.37.177-.227.256-.434.089-.206.079-.304 0-.076.099-.076.098 0 .098.163v.01q0 .446-.246.772-.247.326-.62.5-.365.174-.74.174-.236 0-.492-.087-.532-.207-.788-.598-.257-.402-.257-.88 0-.445.217-.913.227-.478.66-.901.434-.435 1.074-.75.65-.315 1.497-.446.454-.076.897-.108.443-.033.857-.033.571 0 1.113.065.552.055 1.035.174.137-.13.275-.228.148-.098.266-.152.07-.033.119-.044.049-.01.078-.01.06 0 .06.043 0 .054-.148.174-.099.076-.187.174-.09.087-.109.13 1.005.283 1.626.782.63.49.63 1.163 0 .348-.207.76-.216.403-.6.653-.385.239-.818.358-.434.109-.808.13.325.11.71.327.393.206.718.51.335.305.444.717.069.261.069.533 0 .576-.306 1.043-.295.467-.798.804-.492.326-1.083.5-.591.185-1.173.185-.216 0-.443-.033-.946-.13-1.566-.326-.611-.196-1.074-.435-.956.794-2.079.794zm5.024-.315q.611 0 1.114-.207.502-.206.866-.543.375-.337.572-.75.207-.413.207-.815 0-.38-.207-.739-.207-.358-.65-.597-.385-.207-.798-.337-.404-.142-.7-.24-.295-.108-.345-.217 0-.13.099-.174.108-.054.276-.054.197 0 .473.033.276.032.58.032.316 0 .641-.152.335-.163.611-.424.276-.271.443-.586.178-.326.178-.663 0-.304-.188-.598-.187-.293-.62-.51-.434-.218-.936-.348-.493.75-.985 1.684-.493.924-.985 1.88-.493.945-.995 1.793-.503.847-1.005 1.456-.118.141-.187.217-.07.065-.187.185.463.206 1.054.391.59.185 1.35.26.078.012.157.012.089.01.167.01zm-5.22-.022q.55.032 1.004-.141.463-.185.857-.511l-.71-.38q-.354-.207-.758-.37-.285-.109-.522-.109-.364 0-.552.218-.187.206-.187.478 0 .282.217.543.217.25.65.272z" aria-label="B" font-size="6.43" font-family="Great Vibes" letter-spacing="1.072" text-anchor="middle" fill="url(#prefix__f)" stroke="#fff" stroke-width=".161" stroke-linecap="round" stroke-linejoin="bevel" stroke-miterlimit="3.7" transform="matrix(.81189 0 0 1.06383 14.507 -.387)"/></g></svg>
